img/advantage/grey/icon-6.svg

<svg width="65" height="65" viewBox="0 0 65 65" fill="none" xmlns="http://www.w3.org/2000/svg">
<path d="M46.1711 9.8556C41.9469 10.1225 38.5602 13.5092 38.2932 17.7334C37.972 22.8154 42.168 27.0274 47.2642 26.7044C51.4883 26.4376 54.875 23.0509 55.142 18.8266C55.4632 13.7456 51.2685 9.53276 46.1711 9.8556ZM53.2418 18.7065C53.0351 21.9761 50.4138 24.5974 47.1441 24.8041C43.1783 25.0521 39.9453 21.782 40.1935 17.8535C40.4002 14.5838 43.0215 11.9625 46.2912 11.7558C50.2358 11.5078 53.4911 14.759 53.2418 18.7065Z" fill="#9898A7"/>
<path d="M61.2532 13.7947C59.881 13.7895 59.2018 12.1384 60.172 11.1681C60.878 10.4622 61.2667 9.52364 61.2667 8.52528C61.2667 7.52692 60.878 6.58849 60.172 5.88263L59.0719 4.78258C57.6197 3.33036 55.3146 3.35118 53.8246 4.83006C52.8506 5.79655 51.2027 5.10948 51.2027 3.73725C51.2026 1.67654 49.5261 0 47.4652 0H45.97C43.9092 0 42.2326 1.67654 42.2326 3.73737C42.2326 5.11088 40.5801 5.79947 39.606 4.82536C38.9001 4.11937 37.9615 3.73064 36.9633 3.73064C35.9649 3.73064 35.0265 4.11937 34.3206 4.82536L33.2634 5.88263C32.973 6.17297 32.7365 6.50482 32.5584 6.86461C31.189 6.02393 29.5792 5.5382 27.858 5.5382H19.5455C17.6653 5.5382 15.9857 6.73042 15.3659 8.50497C15.3229 8.62824 15.2015 8.71114 15.0638 8.71114C12.6073 8.71114 10.6088 10.7096 10.6088 13.1661C10.6088 13.6919 11.0352 14.1181 11.5609 14.1181C12.0867 14.1181 12.5129 13.6918 12.5129 13.1661C12.5129 11.7595 13.6571 10.6153 15.0636 10.6153C16.0098 10.6153 16.8537 10.0196 17.1634 9.13288C17.5166 8.1217 18.4737 7.44237 19.5453 7.44237H27.8578C31.7773 7.44237 34.9659 10.6311 34.9659 14.5504V19.7001C33.4915 20.1143 33.2946 20.6667 32.1692 20.7259V16.4138C32.1692 14.2243 30.3879 12.4431 28.1985 12.4431H28.1621C26.5318 12.4431 25.8659 13.1214 23.9261 13.1214H23.5531C21.6335 13.1214 20.9345 12.4431 19.3171 12.4431H19.2808C17.0913 12.4431 15.31 14.2243 15.31 16.4138V20.1255C14.4087 19.7441 13.3081 19.5999 12.5133 19.5468V17.6706C12.5133 17.1448 12.087 16.7186 11.5612 16.7186C11.0354 16.7186 10.6092 17.1449 10.6092 17.6706V19.9679C9.96215 20.5056 9.57786 21.3048 9.57786 22.1683V24.2892C9.57786 25.8124 10.7722 27.0617 12.2736 27.1502C12.559 29.9095 13.8451 32.4377 15.8821 34.1917C16.1906 34.4572 16.5063 34.7039 16.828 34.9346V38.9392C16.828 39.3165 16.5454 39.6377 16.1705 39.6864C16.1704 39.6864 16.1704 39.6864 16.1703 39.6864C13.3818 40.0483 8.28637 40.8412 5.49073 42.086C2.15694 43.5703 0.00292971 46.8873 0.00292971 50.5366V60.0035C0.0026758 62.7586 2.24403 65 4.99904 65H42.4795C45.2346 65 47.4759 62.7586 47.4759 60.0036V56.7884C47.4759 56.2626 47.0496 55.8364 46.5239 55.8364C45.9982 55.8364 45.5719 56.2627 45.5719 56.7884V60.0036C45.5719 61.7087 44.1846 63.0958 42.4797 63.0958H40.0334V57.9041C40.0334 57.3782 39.6071 56.9521 39.0814 56.9521C38.5557 56.9521 38.1294 57.3784 38.1294 57.9041V63.0958H28.2325L26.4756 50.1101L27.367 48.8578C27.5987 48.9206 27.8359 48.9539 28.0733 48.9539C28.7032 48.9539 29.3311 48.7335 29.8386 48.2979L34.1185 44.6243C34.8363 44.0082 35.1707 43.101 35.0375 42.1883C37.2328 42.5853 39.667 43.1368 41.2139 43.8255C43.8614 45.0042 45.5721 47.6385 45.5721 50.5366V52.3392C45.5721 52.8651 45.9984 53.2912 46.5241 53.2912C47.0499 53.2912 47.4762 52.8649 47.4762 52.3392V50.5366C47.4762 46.8873 45.322 43.5703 41.9884 42.086C39.1927 40.8413 34.0973 40.0484 31.3088 39.6864H31.3087C30.9338 39.6377 30.6512 39.3166 30.6512 38.9392V34.9346C30.9729 34.7039 31.2886 34.4572 31.5971 34.1917C32.5366 33.3827 33.3139 32.4077 33.9094 31.3228L34.3206 31.734C35.7812 33.1946 38.1454 33.1948 39.6061 31.734C40.5774 30.7626 42.2327 31.4443 42.2327 32.822C42.2327 34.8828 43.9093 36.5593 45.9701 36.5593H47.4654C49.5262 36.5593 51.2027 34.8828 51.2027 32.822C51.2027 31.4478 52.8559 30.7604 53.8294 31.734C54.5353 32.44 55.4738 32.8287 56.4722 32.8287C57.4705 32.8287 58.409 32.4399 59.1148 31.7341L60.1721 30.6768C61.6293 29.2195 61.6293 26.8486 60.1721 25.3914C59.2018 24.4211 59.8813 22.7699 61.2534 22.7647C63.3529 22.7569 64.9975 21.1416 64.9975 19.0879V17.4717C64.9973 15.4178 63.3528 13.8027 61.2532 13.7947ZM24.9906 48.9125H22.4882L21.7586 47.8876L23.7395 46.4614L25.7203 47.8876L24.9906 48.9125ZM19.8776 46.8957C19.5743 47.1143 19.1643 47.0967 18.8806 46.8532L14.6005 43.1796C14.2353 42.866 14.3175 42.4601 14.3514 42.3432C14.3851 42.2271 14.5308 41.8464 14.9971 41.7714C15.3964 41.7127 15.7615 41.6618 16.0779 41.6194L22.0327 45.344L19.8776 46.8957ZM1.90685 60.0036V50.5367C1.90685 47.6387 3.61754 45.0045 6.26502 43.8256C7.81194 43.1369 10.2461 42.5854 12.4414 42.1884C12.3081 43.1011 12.6426 44.0083 13.3603 44.6244L17.6404 48.298C18.1478 48.7336 18.7756 48.954 19.4056 48.954C19.6428 48.954 19.8801 48.9208 20.1118 48.8579L21.0033 50.1102L19.2464 63.096H9.34947V57.9042C9.34947 57.3784 8.92316 56.9522 8.39745 56.9522C7.87174 56.9522 7.44543 57.3785 7.44543 57.9042V63.096H4.99904C3.29406 63.0958 1.90685 61.7086 1.90685 60.0036ZM21.1678 63.0958L22.8291 50.8167H24.6495L26.3108 63.0958H21.1678ZM33.1273 42.3431C33.1612 42.46 33.2433 42.866 32.8781 43.1794L28.5981 46.8531C28.3144 47.0964 27.9044 47.1141 27.6013 46.8956L25.446 45.3437L31.4009 41.6192C31.7172 41.6616 32.0825 41.7125 32.4819 41.7711C32.9479 41.8464 33.0936 42.2271 33.1273 42.3431ZM29.3706 40.6432L23.7394 44.1653L18.108 40.6432C18.4976 40.1785 18.7318 39.5827 18.7318 38.9393V36.0594C21.927 37.5738 25.5512 37.5739 28.7469 36.0594V38.9393C28.7469 39.5827 28.9811 40.1786 29.3706 40.6432ZM30.3546 32.7488C26.4233 36.1339 21.0562 36.1345 17.1242 32.7488C15.2698 31.1521 14.1746 28.7588 14.1192 26.1828C14.1082 25.6651 13.6853 25.2512 13.1675 25.2512H12.4436C11.9132 25.2512 11.4817 24.8197 11.4817 24.2893V22.1684C11.4817 21.875 11.6158 21.605 11.839 21.4242C12.9342 21.4489 14.5322 21.6698 15.0056 22.1367C15.3799 22.5057 15.9345 22.6134 16.4189 22.4108C16.9019 22.2087 17.2141 21.7395 17.2141 21.2154V16.4139C17.2141 15.2744 18.1411 14.3474 19.2806 14.3474C21.0313 14.476 21.4405 15.0257 23.553 15.0257H23.926C26.1113 15.0257 26.9376 14.3474 28.162 14.3474H28.1983C29.3379 14.3474 30.2649 15.2744 30.2649 16.4139V20.8677C30.2649 21.8415 31.0572 22.6338 32.0345 22.6338C33.8363 22.6338 34.3229 21.7967 35.7028 21.4781C35.8883 21.6566 35.9972 21.9035 35.9972 22.1686V24.2894C35.9972 24.8198 35.5657 25.2514 35.0353 25.2514H34.3114C33.7935 25.2514 33.3707 25.6652 33.3596 26.1829C33.3043 28.7589 32.209 31.1521 30.3546 32.7488ZM63.0932 19.0879C63.0932 20.078 62.2818 20.8567 61.246 20.8607C58.183 20.8722 56.6616 24.5741 58.8255 26.738C59.5403 27.4527 59.5403 28.6157 58.8255 29.3306L57.7683 30.3879C57.4221 30.7341 56.9617 30.9249 56.4719 30.9249C55.9823 30.9249 55.5219 30.7342 55.1756 30.3879C53.0075 28.2198 49.2984 29.7516 49.2984 32.8223C49.2984 33.8331 48.476 34.6555 47.4652 34.6555H45.97C44.9592 34.6555 44.1368 33.8331 44.1368 32.8223C44.1368 29.7554 40.4305 28.217 38.2595 30.3879C37.543 31.1044 36.3835 31.1044 35.667 30.3879L34.7203 29.4413C34.9587 28.7046 35.1241 27.9376 35.2055 27.1506C36.7069 27.0621 37.9012 25.8127 37.9012 24.2896V22.1687C37.9012 21.3053 37.5169 20.506 36.8699 19.9683V14.5507C36.8699 12.0174 35.8175 9.72639 34.1289 8.08742C34.2075 7.7642 34.371 7.46776 34.6095 7.22935L35.6669 6.17208C36.0131 5.82588 36.4734 5.63507 36.963 5.63507C37.4527 5.63507 37.9132 5.82575 38.2594 6.17208C40.4276 8.34019 44.1365 6.80837 44.1365 3.73763C44.1365 2.72683 44.9589 1.90442 45.9697 1.90442H47.465C48.4758 1.90442 49.2982 2.72683 49.2982 3.73763C49.2982 6.80177 52.9944 8.33663 55.1655 6.18186C55.9008 5.45238 57.0251 5.42915 57.7251 6.12917L58.8251 7.22935C59.1713 7.57555 59.3621 8.03588 59.3621 8.52554C59.3621 9.01519 59.1715 9.47565 58.8251 9.82186C56.6583 11.9886 58.1867 15.6875 61.2456 15.699C62.2814 15.703 63.0928 16.4817 63.0928 17.4718V19.0879H63.0932Z" fill="#9898A7"/>
</svg>

<svg width="65" height="65" fill="none" xmlns="http://www.w3.org/2000/svg"><path d="M46.171 9.856a8.442 8.442 0 1 0 1.093 16.849 8.442 8.442 0 0 0-1.093-16.85zm7.07 8.85a6.535 6.535 0 0 1-6.097 6.098 6.54 6.54 0 0 1-6.95-6.95 6.535 6.535 0 0 1 6.097-6.098 6.542 6.542 0 0 1 6.95 6.95z" fill="#9898A7"/><path d="M61.253 13.795c-1.372-.005-2.051-1.657-1.081-2.627a3.713 3.713 0 0 0 1.095-2.643c0-.998-.389-1.937-1.095-2.642l-1.1-1.1c-1.452-1.453-3.757-1.432-5.247.047-.974.967-2.622.28-2.622-1.093A3.742 3.742 0 0 0 47.465 0H45.97a3.742 3.742 0 0 0-3.737 3.737c0 1.374-1.653 2.062-2.627 1.088a3.713 3.713 0 0 0-2.643-1.094c-.998 0-1.937.388-2.642 1.094l-1.058 1.058c-.29.29-.526.622-.705.982a8.957 8.957 0 0 0-4.7-1.327h-8.313a4.431 4.431 0 0 0-4.18 2.967.316.316 0 0 1-.301.206 4.46 4.46 0 0 0-4.455 4.455.952.952 0 0 0 1.904 0 2.554 2.554 0 0 1 2.55-2.55c.947 0 1.79-.596 2.1-1.483a2.525 2.525 0 0 1 2.382-1.69h8.313a7.116 7.116 0 0 1 7.108 7.107v5.15c-1.474.414-1.671.967-2.797 1.026v-4.312c0-2.19-1.781-3.97-3.97-3.97h-.037c-1.63 0-2.296.677-4.236.677h-.373c-1.92 0-2.619-.678-4.236-.678h-.036a3.975 3.975 0 0 0-3.971 3.97v3.712c-.901-.38-2.002-.525-2.797-.578V17.67a.952.952 0 0 0-1.904 0v2.297a2.854 2.854 0 0 0-1.031 2.2v2.121a2.87 2.87 0 0 0 2.696 2.861c.285 2.76 1.571 5.288 3.608 7.042.309.265.624.512.946.743v4.004a.756.756 0 0 1-.657.747c-2.79.362-7.885 1.155-10.68 2.4a9.26 9.26 0 0 0-5.488 8.45v9.468A5.002 5.002 0 0 0 4.999 65h37.48a5.002 5.002 0 0 0 4.997-4.996v-3.216a.952.952 0 0 0-1.904 0v3.216a3.096 3.096 0 0 1-3.092 3.092h-2.447v-5.192a.952.952 0 1 0-1.904 0v5.192h-9.896L26.476 50.11l.891-1.252a2.706 2.706 0 0 0 2.472-.56l4.28-3.674a2.677 2.677 0 0 0 .919-2.436c2.195.397 4.629.949 6.176 1.637a7.353 7.353 0 0 1 4.358 6.712v1.802a.952.952 0 1 0 1.904 0v-1.802a9.26 9.26 0 0 0-5.488-8.451c-2.795-1.245-7.89-2.038-10.68-2.4a.756.756 0 0 1-.657-.747v-4.004c.322-.231.638-.478.946-.743a10.346 10.346 0 0 0 2.312-2.87l.412.412a3.735 3.735 0 0 0 5.285 0c.971-.971 2.627-.29 2.627 1.088a3.742 3.742 0 0 0 3.737 3.737h1.495a3.741 3.741 0 0 0 3.738-3.737c0-1.374 1.653-2.062 2.626-1.088a3.713 3.713 0 0 0 2.643 1.095c.998 0 1.937-.39 2.643-1.095l1.057-1.057a3.742 3.742 0 0 0 0-5.286c-.97-.97-.29-2.621 1.081-2.626 2.1-.008 3.745-1.623 3.745-3.677v-1.616c0-2.054-1.645-3.67-3.745-3.677zM24.991 48.913h-2.503l-.73-1.025 1.982-1.427 1.98 1.427-.73 1.025zm-5.113-2.017a.804.804 0 0 1-.997-.043L14.6 43.18a.795.795 0 0 1-.25-.837.796.796 0 0 1 .646-.572c.4-.058.764-.11 1.08-.152l5.956 3.725-2.155 1.552zM1.907 60.004v-9.467a7.354 7.354 0 0 1 4.358-6.711c1.547-.69 3.981-1.24 6.176-1.638-.133.913.202 1.82.92 2.436l4.28 3.674a2.705 2.705 0 0 0 2.47.56l.892 1.252-1.757 12.986H9.35v-5.192a.952.952 0 0 0-1.904 0v5.192H5a3.096 3.096 0 0 1-3.092-3.092zm19.26 3.092 1.662-12.28h1.82l1.662 12.28h-5.143zm11.96-20.753a.795.795 0 0 1-.249.836l-4.28 3.674a.805.805 0 0 1-.997.043l-2.155-1.552 5.955-3.725c.316.043.682.093 1.08.152a.797.797 0 0 1 .646.572zm-3.756-1.7-5.632 3.522-5.631-3.522c.39-.465.624-1.06.624-1.704v-2.88a11.606 11.606 0 0 0 10.015 0v2.88c0 .644.234 1.24.624 1.704zm.984-7.894c-3.932 3.385-9.299 3.386-13.23 0-1.855-1.597-2.95-3.99-3.006-6.566a.952.952 0 0 0-.951-.932h-.724a.963.963 0 0 1-.962-.962v-2.12c0-.294.134-.564.357-.745 1.095.025 2.693.246 3.167.713a1.296 1.296 0 0 0 2.208-.922v-4.801c0-1.14.927-2.067 2.067-2.067 1.75.129 2.16.679 4.272.679h.373c2.185 0 3.012-.679 4.236-.679h.036c1.14 0 2.067.927 2.067 2.067v4.454c0 .974.792 1.766 1.77 1.766 1.801 0 2.288-.837 3.668-1.156a.956.956 0 0 1 .294.69v2.121c0 .53-.431.962-.962.962h-.724a.952.952 0 0 0-.951.932c-.056 2.576-1.151 4.97-3.005 6.566zm32.738-13.661c0 .99-.811 1.769-1.847 1.773-3.063.011-4.584 3.713-2.42 5.877a1.835 1.835 0 0 1 0 2.593l-1.058 1.057a1.821 1.821 0 0 1-1.296.537c-.49 0-.95-.19-1.296-.537-2.169-2.168-5.878-.636-5.878 2.434 0 1.011-.822 1.834-1.833 1.834H45.97a1.835 1.835 0 0 1-1.833-1.834c0-3.067-3.706-4.605-5.877-2.434a1.832 1.832 0 0 1-2.593 0l-.947-.947c.239-.736.404-1.503.486-2.29A2.87 2.87 0 0 0 37.9 24.29v-2.121c0-.864-.384-1.663-1.031-2.2V14.55a8.984 8.984 0 0 0-2.741-6.464c.079-.323.242-.62.48-.858l1.058-1.057a1.821 1.821 0 0 1 1.296-.537c.49 0 .95.19 1.296.537 2.169 2.168 5.877.636 5.877-2.434 0-1.011.823-1.834 1.834-1.834h1.495c1.01 0 1.833.823 1.833 1.834 0 3.064 3.696 4.599 5.867 2.444.736-.73 1.86-.753 2.56-.053l1.1 1.1c.346.347.537.807.537 1.297 0 .49-.19.95-.537 1.296-2.167 2.167-.638 5.866 2.42 5.877 1.036.004 1.848.783 1.848 1.773v1.616z" fill="#9898A7"/></svg>
